X:1
T:Jay mis mon cuer
T:Jay mis mon cuer
T:Clement Janequin
T:Source : Trium vocum cantiones---Nürnberg---J.Petreius---1541. Editor : André Vierendeels (10/10/16).
T:Notes : Original clefs : C3, C4, F4 Editorial accidentals above the  staff Original note values have been halved
T:©
T:©
T:©
T:©
T:©
C:Clement Janequin
Z:©
%%score [ 1 2 3 ]
L:1/8
Q:1/4=120
M:2/2
K:F
V:1 treble-8 nm="Tenor 1" snm="T 1"
V:2 treble-8 nm="Tenor 2" snm="T 2"
V:3 bass nm="Bass" snm="B"
V:1
 z8 | z2 G2 F4 | G4 A4 | z2 A2 c4- | c2 c2 B2 AG | A4 G2 B2- | BA d4 c2 | d2 A2 d2 c2 | %8
w: |Iay mis|mon cuer|en u-|* ne seul- * *||* * * le-|ment, ijay mis mon|
 A2 cB AG A2- | A2 G4 F2 | G2 de fg a2- | a2 g4 f2 | g4 z2 G2- | GABG B3 A | F4 z2 F2- | %15
w: cuer en _ _ _ u-||ne seul- * * * *|* * le-|ment, si|_ _ _ _ tres a-|vant qui|
 FGAF AB c2- | cBGA BAGF | E2 A4 G2 | A2 c2 d4 | c8 | c3 B AG B2- | B2 A4 G2 | A4 z2 F2 | %23
w: _ _ _ _ ne _ se|_ _ _ _ _ _ _ _|* peult sor-|tir, qui ne|se|peult _ _ _ _|_ sor- *|tir, tant|
 F2 F2 G2 B2- | B2 AG A4 | z2 G2 G2 G2 | E4 E4 | C3 D/E/ C2 F2- | F2 ED E2 F2- | FGAB cBcd | %30
w: plus j'y pen- *|* * * se,|et plus ay|de sou-|cy, _ _ _ las,|_ _ _ _ je|_ _ _ _ _ _ _ _|
 ed d4 c2 | d4 D3 E | FD F3 G F2 | A2 B4 AG | A2 FG AFBA | GF G4 F2 | G4 z4 | z8 | z8 | z8 | %40
w: * * * ne|puis vi- *|* * * * vre|joy- eu- * *|se- * * * * * *||ment,||||
 z4 z2 c2 | B4 c4 | d4 z2 d2 | f6 ed | ef g4 fe | d2 g4 f2 | g8 |] %47
w: las,|ie ne|puis vi-|vre ioy- *|* * eu- * *|* * se-|ment.|
V:2
 z8 | z8 | z8 | z8 | z8 | z4 z2 G2 | F4 G4 | A4 z2 A2 | c6 c2 | B2 AG A4 | GABc dB c2- | cBAG A4 | %12
w: |||||Iay|mis mon|cuer en|u- ne|seul- * * *||* * * * le-|
 G4 z4 | d8 | d4 d4 | c6 BA | G4 z2 G2 | c4 d4 | c2 BA B4 | A6 G2 | A4 z4 | z8 | z8 | d8 | d4 d4 | %25
w: ment,|si|tres a-|vant _ _|_ qui|ne se|peult, _ _ _|_ _||||tant|plus j'y|
 c6 BA | G4 z2 G2 | c4 c4 | A4 A4 | F4 z2 A2 | GFED E4 | D3 E FD F2- | FGAF A3 B | cA d4 cB | %34
w: pen- * *|se, et|plus ay|de sou-|cy, las,|je _ _ _ ne|puis _ _ _ vi-|* * * * re _|_ _ ioy- * *|
 c6 d2 | B2 c2 A4 | G4 z2 G2 | F4 G4 | A4 z2 A2 | c6 c2 | B2 AG A4 | G4 z2 G2 | F4 G4 | A4 z2 A2 | %44
w: eu- *|* * se-|ment, las|ie ne|puis vi-|vre ioy-|eu- * * se-|ment, las|ie ne|puis vi-|
 c6 c2 | B2 AG A4 | G8 |] %47
w: vre ioy-|eu- * * se-|ment.|
V:3
 z2 G,2 F,4 | G,4 A,2 A,,2 | B,,2 C,3 A,, D,2- | D,2 C,B,, A,,B,,C,D, | E,2 F,2 D,2 G,2- | %5
w: Iay mis|mon cuer en|_ u- ne seul-|||
 G,2 F,2 G,3 F, | D,2 F,2 E,4 |"^#" D,4 D,2 F,2- | F,2 E,D, C,3 B,, | G,,4 D,4 | z2 G,2 D,2 F,2 | %11
w: |* * le-|ment, en u-|* ne _ seu- *|le- ment,|en u- ne|
 G,2 E,2 D,4 | z2 G,3 A,B,G, | B,3 B,, B,,4 | z2 D,3 E,F,D, | F,3 E, C,3 D, | E,D,E,F, G,2 C,2- | %17
w: seu- le- ment,|si tres _ _|_ a- vant,|si tres _ _|au- * * *||
 C,2 B,,A,, B,,4 | A,,2 A,4 G,2 | A,2 F,4 E,2 | F,2 C,2 D,4 | C,2 B,,A,, B,,4 | A,,3 B,, C,2 D,2- | %23
w: |tant, qui ne|se peult sor-||||
 D,C,B,,A,, G,,2 G,2 | G,2 G,2 F,4- | F,2 E,D, C,4 | z2 C,2 C,2 C,2 | A,,4 A,,4 | %28
w: * * * * tir, tant|plus j'y pen-|* * * se,|et plus ay|de sou-|
 F,,G,,A,,B,, C,2 D,2- | D,2 C,B,, A,,G,,A,,B,, | C,2 D,2 A,,4 | D,4 z4 | D,3 E, F,D, F,2- | %33
w: |||cy,|las, je ne _ puis|
 F,E,D,C, B,,2 F,2- | F,G, A,2 F,2 D,2 | E,2 C,2 D,4 | G,,2 C,2 B,,2 C,2 | D,C,B,,A,, B,,3 A,, | %38
w: _ _ _ _ _ vi-|* * * vre ioy-|eu- * se-|ment, las, ie ne|puis _ _ _ vi- vre|
 F,,G,,A,,B,, C,2 D,2 | E,2 F,3 G, A,2- | A,2 G,4 F,2 | G,F,E,D, E,4 |"^#" D,4 G,,4 | %43
w: ioy- * * * eu- *||||se- ment,|
 z2 D,2 F,3 E, | C,3 D, E,2 F,2 | G,2 E,2 D,4 | G,,8 |] %47
w: ioy- eu- *|se- * * *||ment.|

